!!!!SEGMENT: pl-kk--kk-i-6--042_anonim--benedicta-et-venerabilis.krn
!!!cenid: 16xx:1035
!!!COM: Anonim
!!!COM-rismid: pe30004985
!!!CDT:
!!!CNT:
!!!OTL: Benedicta et venerabilis
!!!PDT:
!!!AGN: Sacred
!!!SMS-siglum: PL-Kk
!!!SMS-shelfmark: Kk.I.6
!!!SMS-shelfwork: 042 W
!!!SMS-variant:
!!!SMS-altvar:
!!!NIFC-rismid: 1001136523
!!!URL-scan: http://repozytorium.nifc.pl/skany/pl-kk-nut--i-6
!!!ONB-nifc: UWAGA: C (skan 0065-0066, s. 126-128), T (skan 0177-0178, s. 158-160), B (skan 0286, s. 154-155) Następny utwór: Beata es virgo Maria
**kern	**text	**kern	**text	**kern	**text
*part3	*part3	*part2	*part2	*part1	*part1
*staff3	*staff3	*staff2	*staff2	*staff1	*staff1
*Iempty	*	*Itenor	*	*Ivox	*
*I"Baſsus	*	*I"Tenor.	*	*I"Cantus.	*
*I'B	*	*I'T	*	*I'C	*
*clefF4	*	*clefC4	*	*clefC1	*
*k[b-]	*	*k[b-]	*	*k[b-]	*
*g:	*	*g:	*	*g:	*
*M2/1	*	*M2/1	*	*M2/1	*
*met(C|)	*	*met(C|)	*	*met(C|)	*
=1-	=1-	=1-	=1-	=1-	=1-
!LO:TX:t=P:problem:inicjał "B" pod kluczem pod pięciolinią	!	!	!	!LO:TX:t=P:problem:inicjał "B" przed kluczem pod pięciolinią	!
!LO:TX:t=P:problem:słowo "Graduale" przed kluczem na pięciolinii	!	!LO:TX:t=P:problem:słowo "Graduale" przed kluczem na pięciolinii	!	!LO:TX:t=P:problem:słowo "Graduale" przed kluczem na pięciolinii	!
!LO:TX:a:t=Graduale	!	!LO:TX:a:t=Graduale	!	!LO:TX:a:t=Graduale	!
!LO:TX:t=P:problem:słowo "Intonatio" przed kluczem pod pięciolinią. Nad słowem znajdują się cztery dźwięki	!	!LO:TX:t=P:problem:słowo "Inton:" przed kluczem. Nad słowem znajdują się trzy dźwięki	!	!LO:TX:t=P:problem:słowo "Intonatio" przed kluczem na pięciolinii. Nad słowem znajdują się trzy dźwięki	!
!LO:TX:i:a:t=Intonatio	!	!LO:TX:i:a:t=Inton&colon;	!	!LO:TX:i:a:t=Intonatio	!
2r	.	1G	Be-	0r	.
1G	Be-	.	.	.	.
.	.	1A	-ne-	.	.
*2\right	*	*	*	*	*
!LO:TX:t=P:problem:kreska pseudotaktowa	!	!	!	!	!
2F#X\	-ne-	.	.	.	.
=2-	=2-	=2-	=2-	=2-	=2-
2.G\	-di-	1B-	-di-	2r	.
.	.	.	.	1dd	Be-
4F#\	.	.	.	.	.
*lig	*	*	*	*	*
1En	.	1G	-cta	.	.
*	*	*	*	*2\right	*
!	!	!	!	!LO:TX:t=P:problem:kreska pseudotaktowa	!
.	.	.	.	2cc#X\	-ne-
=3-	=3-	=3-	=3-	=3-	=3-
1D	.	1d	et	2.dd\	-di-
.	.	.	.	4cc#y\	.
*Xlig	*	*2\right	*	*	*
!LO:TX:t=P:problem:kreska pseudotaktowa	!	!	!	!	!
1GG	-cta	2d\	ve-	2b-\	.
!	!	!	!	!LO:TX:t=P:problem:kreska pseudotaktowa	!
.	.	2d\	-ne-	2g\	-cta
=4-	=4-	=4-	=4-	=4-	=4-
00r	.	2.B-\	-ra-	1r	.
.	.	4A\	-bi-	.	.
.	.	2G/	-lis	1g	Be-
.	.	2e-X\	es	.	.
=5-	=5-	=5-	=5-	=5-	=5-
.	.	(>2.d\	Vir-	1a	-ne-
.	.	4c\)	.	.	.
.	.	2B-\	-go	1b-	-di-
.	.	2B-\	Ma-	.	.
!	!	!LO:LB:g=original	!	!LO:LB:g=original	!
=6-	=6-	=6-	=6-	=6-	=6-
*	*	*lig	*	*	*
!LO:TX:t=P:problem:kreska pseudotaktowa	!	!	!	!LO:TX:t=P:problem:kreska pseudotaktowa	!
1r	.	1c	-ri-	1g	-cta
1D	Be-	1d	.	2.dd\	Be-
.	.	.	.	4dd\	-ne-
*	*	*Xlig	*	*	*
=7-	=7-	=7-	=7-	=7-	=7-
1En	-ne-	1G	-a	(>2dd\	-di-
!	!	!	!	!LO:TX:t=P:problem:kreska pseudotaktowa	!
.	.	.	.	2cc#X\)	.
1Fny	-di-	1r	.	2dd,\	-cta
!	!	!	!	!LO:TX:t=P:problem:kreska pseudotaktowa	!
.	.	.	.	2dd\	et
!LO:LB:g=original	!	!	!	!	!
=8-	=8-	=8-	=8-	=8-	=8-
!LO:TX:t=P:problem:kreska pseudotaktowa	!	!	!	!	!
1D	-cta	1d	et	2dd\	ve-
!	!	!	!	!LO:TX:t=P:problem:kreska pseudotaktowa	!
.	.	.	.	2dd\	-ne-
1G	et	2d\	ve-	2.b-\	-ra-
.	.	2d\	-ne-	.	.
!	!	!	!	!LO:TX:t=P:problem:kreska pseudotaktowa	!
.	.	.	.	4a\	-bi-
=9-	=9-	=9-	=9-	=9-	=9-
2G\	ve-	2.B-\	-ra-	2g\	-lis
2G\	-ne-	.	.	2g\	es
.	.	4B-\	-bi-	.	.
2.F\	-ra-	2A/	-lis	1a	Vir-
.	.	2A/	es	.	.
4E-X\	-bi-	.	.	.	.
=10-	=10-	=10-	=10-	=10-	=10-
2D\	-lis	2d\	Vir-	2b-\	-go
!LO:TX:t=P:problem:kreska pseudotaktowa	!	!	!	!LO:TX:t=P:problem:kreska pseudotaktowa	!
2D\	es	1d	-go	2b-\	Vir-
1E-X	Vir-	.	.	2g/	-go
!	!	!	!	!LO:TX:t=P:problem:kreska pseudotaktowa	!
.	.	2c\	.	2ccny\	Ma-
=11-	=11-	=11-	=11-	=11-	=11-
2D\	-go	1d	Ma-	2a\	.
*lig	*	*	*	*	*
1BB-	Ma-	.	.	2.b-\	.
.	.	2G/	-ri-	.	.
.	.	.	.	4a\	.
!	!	!	!	!LO:TX:t=P:problem:kreska pseudotaktowa	!
1C/	.	2G/	-a	2g\	.
*Xlig	*	*	*	*	*
=12-	=12-	=12-	=12-	=12-	=12-
.	.	1A	Vir-	2.cc\	.
1D	.	.	.	.	.
.	.	.	.	4b-\	.
.	.	2A/	-go	2a\	.
!	!	!LO:TX:t=P:problem:łuczek nad nutą	!	!	!
2C/	.	2e-X\	Ma-	2cc\	.
!	!	!	!	!LO:LB:g=original	!
=13-	=13-	=13-	=13-	=13-	=13-
!	!	!	!	!LO:TX:t=P:problem:kreska pseudotaktowa	!
1D	-ri-	1d	-ri-	1a	-ri-
!LO:TX:t=P:problem:kreska pseudotaktowa	!	!	!	!	!
1GG	-a	1d	-a	2b-\	-a
.	.	.	.	2g\	qvae
=14-	=14-	=14-	=14-	=14-	=14-
2r	.	0r	.	2g\	ſi-
!	!	!	!	!LO:TX:t=P:problem:kreska pseudotaktowa	!
2G\	qvae	.	.	2g\	-ne
2G\	ſi-	.	.	1b-	ta-
2G\	-ne	.	.	.	.
=15-	=15-	=15-	=15-	=15-	=15-
!LO:TX:t=P:problem:kreska pseudotaktowa	!	!	!	!	!
1B-	ta-	2r	.	(>4b-\	-ctu
.	.	.	.	4a\)	.
.	.	2d\	qvae	(>4b-\	pu-
.	.	.	.	4cc\)	.
!	!	!LO:LB:g=original	!	!	!
!	!	!	!	!LO:TX:t=P:problem:kreska pseudotaktowa	!
2B-\	-ctu	2d\	ſi-	1dd	-do-
!LO:SIC:v:t=custos A	!	!	!	!	!
2B-\	pu-	2d\	-ne	.	.
!LO:LB:g=original	!	!	!	!	!
=16-	=16-	=16-	=16-	=16-	=16-
4A\	-do-	1f	ta-	2cc\	-ris
4G\	.	.	.	.	.
4A\	.	.	.	1cc	ſi-
4B-\	.	.	.	.	.
!LO:TX:t=P:problem:kreska pseudotaktowa	!	!	!	!	!
1c	.	4en\	-ctu	.	.
.	.	4d\	.	.	.
!	!	!	!	!LO:TX:t=P:problem:kreska pseudotaktowa	!
.	.	4e\	pu-	2cc\	-ne
.	.	4f\	.	.	.
=17-	=17-	=17-	=17-	=17-	=17-
2.B-\	.	2g\	-do-	2.dd\	ta-
.	.	1d	.	.	.
4A\	.	.	.	4cc\	.
*lig	*	*	*	*	*
1G	.	.	.	2b-\	.
.	.	1en\	.	4g/	-ctu
!	!	!	!	!LO:TX:t=P:problem:kreska pseudotaktowa	!
.	.	.	.	4g/	pu-
=18-	=18-	=18-	=18-	=18-	=18-
1A	.	.	.	1cc	-do-
.	.	2c#X\	.	.	.
*Xlig	*	*	*	*	*
1B-	.	1.d	.	2b-\	.
!	!	!	!	!LO:TX:t=P:problem:kreska pseudotaktowa	!
.	.	.	.	2dd\	.
=19-	=19-	=19-	=19-	=19-	=19-
1A	.	.	.	1a	.
.	.	2c#X\	.	.	.
2D,/	-ris	2d\	-ris	2a\	-ris
!LO:TX:t=P:problem:kreska pseudotaktowa	!	!	!	!	!
2D/	in-	2d\	in-	2a\	in-
!	!	!	!	!LO:LB:g=original	!
=20-	=20-	=20-	=20-	=20-	=20-
2G\	-ven-	2d\	-ven-	2b-\	-ven-
!	!	!	!	!LO:TX:t=P:problem:kreska pseudotaktowa	!
2E-X\	-ta	2cn\	-ta	2g\	-ta
2D/	es	2d\	es	2dd\	es
!LO:TX:t=P:problem:kreska pseudotaktowa	!	!	!	!LO:TX:t=P:problem:kreska pseudotaktowa	!
2r	.	2G/	in-	2b-\	in-
=21-	=21-	=21-	=21-	=21-	=21-
1r	.	2c\	-ven-	2cc\	-ven-
.	.	2A/	-ta	2cc\	-ta
1G	Ma-	2G/	es.	2b-\	es
!	!	!LO:LB:g=original	!	!	!
!	!	!	!	!LO:TX:t=P:problem:kreska pseudotaktowa	!
.	.	1d\	Ma-	2r	.
=22-	=22-	=22-	=22-	=22-	=22-
2F#X\	-ter	.	.	1dd	Ma-
1G	ſal-	1B-	-ter	.	.
.	.	.	.	2dd\	-ter
*	*	*	*	*	*ij
1E-X\	-va-	1c\	ſal-	1cc\	Ma-
=23-	=23-	=23-	=23-	=23-	=23-
.	.	.	.	.	.
!	!	!	!	!LO:TX:t=P:problem:kreska pseudotaktowa	!
1F#	-to-	1A	-va-	2cc\	-ter
*	*	*	*	*	*Xij
.	.	.	.	2cc\	ſal-
!LO:TX:t=P:problem:kreska pseudotaktowa	!	!	!	!	!
*	*	*lig	*	*	*
2D/	.	1B-\	-to-	2.b-\	.
=24-	=24-	=24-	=24-	=24-	=24-
2BB-/	.	.	.	.	.
.	.	.	.	4b-\	-va-
1E-X	.	1G	.	1b-	-to-
*	*	*Xlig	*	*	*
!LO:LB:g=original	!	!	!	!	!
2C/	.	1A\	.	4a\	.
!	!	!	!	!LO:TX:t=P:problem:kreska pseudotaktowa	!
.	.	.	.	4g\	.
=25-	=25-	=25-	=25-	=25-	=25-
0D	.	.	.	2f#X/	.
.	.	2B-\	.	1g	.
.	.	1A	.	.	.
.	.	.	.	2f#X/	-ris.
=26-	=26-	=26-	=26-	=26-	=26-
!	!	!LO:TX:t=P:problem:fermata bez kropki	!	!	!
!	!	!LO:N:acc=#	!	!LO:TX:t=P:problem:w źródle brak podwójnej kreski	!
0GG;>	-ris.	0Bn;>	-ris	0g;>	.
!	!	!	!	!LO:PB:g=original	!
=27||-	=27||-	=27||-	=27||-	=27||-	=27||-
1D	Vir-	0r	.	00r	.
!LO:TX:t=P:problem:kreska pseudotaktowa	!	!	!	!	!
1D	-go	.	.	.	.
=28-	=28-	=28-	=28-	=28-	=28-
2.G\	De-	1G	Vir-	.	.
4Fny\	.	.	.	.	.
2E-X\	.	1G	-go	.	.
2C/	-i	.	.	.	.
=29-	=29-	=29-	=29-	=29-	=29-
2.D/	Ge-	2.d\	De-	0r	.
4D/	-ni-	4c\	.	.	.
2GG/	-trix	4B-y\	.	.	.
.	.	4c\	.	.	.
!LO:TX:t=P:problem:kreska pseudotaktowa	!	!	!	!	!
2G\	qvem	4B-\	.	.	.
.	.	4A\	.	.	.
=30-	=30-	=30-	=30-	=30-	=30-
2.E-X\	to-	4G/	.	1g	Vir-
.	.	4A/	.	.	.
.	.	4B-\	.	.	.
4D\	.	4G/	.	.	.
4C/	.	2c\	.	1g	-go
4D/	.	.	.	.	.
4E-X\	.	2c\	-i	.	.
!LO:TX:t=P:problem:kreska pseudotaktowa	!	!	!	!	!
4C/	.	.	.	.	.
!	!	!LO:PB:g=original	!	!	!
=31-	=31-	=31-	=31-	=31-	=31-
4D\	.	2.B-\	Ge-	2.dd\	De-
4Eny\	.	.	.	.	.
4F\	.	.	.	.	.
4D\	.	4A\	-ni-	4cc\	.
4E-X\	.	2G/	-trix	2b-\	.
4F\	.	.	.	.	.
!	!	!	!	!LO:TX:t=P:problem:kreska pseudotaktowa	!
4G\	.	4e-X\	De-	2g/	-i
4E-\	.	4d\	.	.	.
!LO:LB:g=original	!	!	!	!	!
=32-	=32-	=32-	=32-	=32-	=32-
0F	.	2c\	.	2a\	Ge-
.	.	2d\	-i	1b-	-ni-
.	.	2.c\	Ge-	.	.
!	!	!	!	!LO:TX:t=P:problem:kreska pseudotaktowa	!
.	.	.	.	2a\	.
.	.	4c\	-ni-	.	.
=33-	=33-	=33-	=33-	=33-	=33-
2BB-,/	-tus	1d	-trix	2b-\	-trix
!LO:TX:t=P:problem:kreska pseudotaktowa	!	!	!	!LO:TX:t=P:problem:kreska pseudotaktowa	!
2B-\	non	.	.	2ff\	qvem
1B-	ca-	2r	.	4ff\	.
.	.	.	.	4ee-X\	.
.	.	2d\	qvem	4dd\	to-
!	!	!	!	!LO:TX:t=P:problem:kreska pseudotaktowa	!
.	.	.	.	4cc\	.
=34-	=34-	=34-	=34-	=34-	=34-
2E-X\	.	2.B-\	.	2b-\	-tus
!	!	!	!	!LO:TX:t=P:problem:kreska pseudotaktowa	!
2G\	-pit	.	.	2b-\	non
.	.	4A/	to-	.	.
*	*ij	*	*	*	*
1G	ca-	2G/	-t(us)	1b-	ca-
.	.	2g\	non	.	.
=35-	=35-	=35-	=35-	=35-	=35-
2C/	-pit	1g	ca-	2g/	-pit
*	*Xij	*	*	*	*
!LO:TX:t=P:problem:kreska pseudotaktowa	!	!	!	!LO:TX:t=P:problem:kreska pseudotaktowa	!
2c\	n(on)	.	.	2ee-X\	n(on)
1c	ca-	2c\	-pit	2.ee-\	ca-
.	.	2c\	n(on)	.	.
!	!	!	!	!LO:TX:t=P:problem:kreska pseudotaktowa	!
.	.	.	.	4dd\	-pit
=36-	=36-	=36-	=36-	=36-	=36-
1F	-pit	2.c\	ca-	4cc\	or-
.	.	.	.	4cc\	-bis
!	!	!	!	!LO:LB:g=original	!
.	.	.	.	1cc	in
.	.	4c\	-pit	.	.
1G	or-	1G	or-	.	.
!	!	!	!	!LO:N:acc=#	!
!	!	!	!	!LO:TX:t=P:problem:kreska pseudotaktowa	!
.	.	.	.	2bn\	Tu-
=37-	=37-	=37-	=37-	=37-	=37-
!LO:TX:t=P:problem:kreska pseudotaktowa	!	!	!	!	!
1C	-bis	2G/	-bis	2cc\	-a
!	!	!	!	!LO:TX:t=P:problem:kreska pseudotaktowa	!
.	.	1c	in	2ee-X\	ſe
00r	.	.	.	1dd	clau-
!	!	!LO:N:acc=#	!	!	!
.	.	2Bn\	Tu-	.	.
=38-	=38-	=38-	=38-	=38-	=38-
.	.	2c\	-a	2cc\	-ſit
!	!	!LO:LB:g=original	!	!	!
!	!	!	!	!LO:TX:t=P:problem:kreska pseudotaktowa	!
.	.	2B-X\	ſe	2g/	ſe
.	.	1A-X	clau-	1cc	clau-
=39-	=39-	=39-	=39-	=39-	=39-
!	!	!	!	!LO:N:acc=#	!
.	.	2G/	-ſit	2bn\	.
.	.	2.E-X/	clau-	2.g\	-ſit
00r	.	.	.	.	.
.	.	4F/	.	4a-X\	clau-
.	.	4G/	.	4b-X\	.
!	!	!	!	!LO:TX:t=P:problem:kreska pseudotaktowa	!
.	.	4E-X/	.	4g\	.
=40-	=40-	=40-	=40-	=40-	=40-
.	.	4F/	.	4a\	.
.	.	4E-/	.	4g\	.
.	.	4F/	.	4a\	.
.	.	4G/	.	4b-\	.
!	!	!	!	!LO:TX:t=P:problem:kreska pseudotaktowa	!
.	.	2A-X/	.	1cc	.
.	.	2F/	-ſit	.	.
=41-	=41-	=41-	=41-	=41-	=41-
!	!	!	!	!LO:N:acc=#	!
.	.	1.G	vi-	2bn\	-ſit
.	.	.	.	1cc	vi-
2r	.	.	.	.	.
!	!	!	!	!LO:TX:t=P:problem:kreska pseudotaktowa	!
!	!	!	!	!LO:N:acc=#	!
2G\	qvem	2G/	-ſce-	2bn\	-ſce-
=42-	=42-	=42-	=42-	=42-	=42-
2.E-X\	to-	1C	-ra	1cc	-ra
4D\	.	.	.	.	.
2C,/	-tus	2r	.	2cc\	qvem
!	!	!	!	!LO:LB:g=original	!
!LO:TX:t=P:problem:kreska pseudotaktowa	!	!	!	!LO:TX:t=P:problem:kreska pseudotaktowa	!
2F\	qvem	2F/	non	2a\	to-
=43-	=43-	=43-	=43-	=43-	=43-
(<2.D/	to-	1B-	ca-	2fny/	-tus
!	!	!	!	!LO:TX:t=P:problem:kreska pseudotaktowa	!
.	.	.	.	2ff\	qvem
4C/)	.	.	.	.	.
2BB-/	-t(us)	2B-\	-pit	2.dd\	.
2B-\	qvem	2B-\	n(on)	.	.
.	.	.	.	4cc\	.
!LO:LB:g=original	!	!	!	!	!
=44-	=44-	=44-	=44-	=44-	=44-
2.G\	to-	1e-X	ca-	2.b-y\	to-
!	!	!	!	!LO:TX:t=P:problem:kreska pseudotaktowa	!
4F\	.	.	.	4a\	.
2E-X\	-tus	2e-\	-pit	2g\	-tus
!LO:TX:t=P:problem:kreska pseudotaktowa	!	!	!	!	!
2E-\	non	2e-\	qvem	2b-\	non
=45-	=45-	=45-	=45-	=45-	=45-
2A-X\	ca-	4c\	.	2cc\	ca-
.	.	4B-\	to-	.	.
!	!	!LO:LB:g=original	!	!	!
!	!	!	!	!LO:TX:t=P:problem:kreska pseudotaktowa	!
2F\	-pit	2A-X/	.	2dd\	-pit
4E-X\	or-	1G	-tus	4ee-X\	or-
4F\	.	.	.	4b-\	.
4G\	.	.	.	1ee-\	.
!LO:TX:t=P:problem:kreska pseudotaktowa	!	!	!	!	!
4A-\	.	.	.	.	.
=46-	=46-	=46-	=46-	=46-	=46-
1B-	.	2r	.	.	.
!	!	!	!	!LO:TX:t=P:problem:kreska pseudotaktowa	!
.	.	2B-\	non	2dd\	.
2E-X\	-bis	1B-	ca-	2ee-y\	-bis
!LO:TX:t=P:problem:kreska pseudotaktowa	!	!	!	!LO:TX:t=P:problem:kreska pseudotaktowa	!
2E-\	n(on)	.	.	2b-\	non
=47-	=47-	=47-	=47-	=47-	=47-
1E-	ca-	2G/	-pit	2b-\	ca-
*	*	*lig	*	*	*
!	!	!	!	!LO:TX:t=P:problem:kreska pseudotaktowa	!
.	.	1G	or-	2g/	-pit
2C/	-pit	.	.	2cc\	n(on)
2F\	n(on)	1A-\	.	1cc\	ca-
*	*	*Xlig	*	*	*
=48-	=48-	=48-	=48-	=48-	=48-
!LO:TX:t=P:problem:kreska pseudotaktowa	!	!	!	!	!
1F	ca-	.	.	.	.
!	!	!LO:TX:a:t=c	!	!LO:TX:t=P:problem:kreska pseudotaktowa	!
.	.	2c\	-bis	2a\	-pit
2D\	-pit	2B-,\	.	2dd\	non
*	*ij	*	*	*	*
2G\	non	2.B-\	or-	1dd\	.
=49-	=49-	=49-	=49-	=49-	=49-
2G\	ca-	.	.	.	.
.	.	4Any/	.	.	.
!LO:TX:t=P:problem:kreska pseudotaktowa	!	!	!	!	!
2C\	-pit	2G/	-bis	4cc\	ca-
*	*Xij	*	*	*	*
.	.	.	.	4b-\	-pit
!	!	!	!	!LO:LB:g=original	!
!	!	!	!	!LO:TX:t=P:problem:kreska pseudotaktowa	!
1D	or-	2r	.	1a	or-
.	.	1d\	in	.	.
=50-	=50-	=50-	=50-	=50-	=50-
!LO:TX:t=P:problem:kreska pseudotaktowa	!	!	!	!	!
1GG	-bis	.	.	2b-\	-bis
.	.	2B-\	Tu-	1g	in
1r	.	2c\	-a	.	.
!	!	!	!	!LO:TX:t=P:problem:kreska pseudotaktowa	!
.	.	2d\	ſe	2f#X/	tu-
!LO:LB:g=original	!	!	!	!	!
=51-	=51-	=51-	=51-	=51-	=51-
2r	.	1G	clau-	2g\	-a
1G	in	.	.	2b-\	ſe
.	.	1A	-ſit	1a	clau-
2F#X\	Tu-	.	.	.	.
=52-	=52-	=52-	=52-	=52-	=52-
2G\	-a	2B-\	vi-	2g/	-ſit
!	!	!	!	!LO:TX:t=P:problem:kreska pseudotaktowa	!
2F#\	ſe	2A/	-ſce-	2dd\	ſe
1E-X	clau-	1G	-ra	(>2g/	clau-
.	.	.	.	2cc\)	.
=53-	=53-	=53-	=53-	=53-	=53-
2D\	-ſit	2.d\	clau-	2a\	-ſit
2.BB-/	clau-	.	.	2.dd\	vi-
.	.	4c\	.	.	.
.	.	2.B-\	.	.	.
4C/	.	.	.	4cc\	.
!	!	!	!	!LO:TX:t=P:problem:kreska pseudotaktowa	!
4D/	.	.	.	2b-\	.
4BB-/	.	4F/	.	.	.
!	!	!LO:LB:g=original	!	!	!
=54-	=54-	=54-	=54-	=54-	=54-
2C/	-ſit	2.c\	-ſit	2a\	.
1D	vi-	.	.	1g	.
.	.	4c\	.	.	.
.	.	2.A/	vi-	.	.
!LO:TX:t=P:problem:kreska pseudotaktowa	!	!	!	!LO:TX:t=P:problem:kreska pseudotaktowa	!
2D/	-ſce-	.	.	2f#X/	-ſce-
.	.	4A/	-ſce-	.	.
=55-	=55-	=55-	=55-	=55-	=55-
2GG/	-ra	2G/	-ra	2g/	-ra
!	!	!LO:N:acc=#	!	!	!
1G	fac-	1Bn	fac-	1g	fac-
2G\	-t(us)	2B\	-t(us)	2g/	-t(us)
=56-	=56-	=56-	=56-	=56-	=56-
0C	Ho-	0c	Ho-	0g	Ho-
=57-	=57-	=57-	=57-	=57-	=57-
!LO:TX:t=P:problem:w źródle brak znaków repetycji	!	!LO:N:acc=#	!	!LO:TX:t=P:problem:w źródle brak znaków repetycji	!
0GG;>	-mo.	0Bn;>	-mo.	0g;>	-mo.
!LO:PB:g=original	!	!	!	!LO:LB:g=original	!
=58:|!|:-	=58:|!|:-	=58:|!|:-	=58:|!|:-	=58:|!|:-	=58:|!|:-
*M2/1	*	*M2/1	*	*M2/1	*
*met(C|)	*	*met(C|)	*	*met(C|)	*
00r	.	1G	Al-	0r	.
.	.	2.B-X\	-le-	.	.
.	.	4c\	.	.	.
=59-	=59-	=59-	=59-	=59-	=59-
.	.	2.d\	.	2r	.
.	.	.	.	2.dd\	Al-
.	.	4c\	.	.	.
.	.	2B-\	.	.	.
.	.	.	.	4dd\	-le-
.	.	2A/	-lu-	2cc\	-lu-
=60-	=60-	=60-	=60-	=60-	=60-
2r	.	2G/	-ja	1dd	-ja
!LO:TX:t=P:problem:kreska pseudotaktowa	!	!	!	!	!
2D/	Al-	1d	al-	.	.
2.Fny\	-le-	.	.	1r	.
.	.	2d\	-le-	.	.
4G\	.	.	.	.	.
!	!	!LO:LB:g=original	!	!	!
=61-	=61-	=61-	=61-	=61-	=61-
2.Any\	.	(>2d\	-lu-	1a	al-
.	.	2c#X\)	.	.	.
!LO:TX:t=P:problem:kreska pseudotaktowa	!	!	!	!	!
4G\	.	.	.	.	.
2F\	.	2d\	-ia	2a\	-le-
2En\	-lu-	2G/	al-	2g\	-lu-
=62-	=62-	=62-	=62-	=62-	=62-
2D\	-ja	2.d\	-le-	2a\	-ja
2.G\	al-	.	.	2g\	al-
.	.	4c#\	.	.	.
.	.	2.B-\	.	2.b-\	-le-
4G\	-le-	.	.	.	.
1G\	-lu-	.	.	.	.
.	.	4A\	.	4cc\	.
=63-	=63-	=63-	=63-	=63-	=63-
.	.	2G/	.	2.dd\	.
!LO:TX:t=P:problem:kreska pseudotaktowa	!	!	!	!	!
2F#X\	.	2A/	.	.	.
.	.	.	.	4cc\	.
2G\	.	4B-\	.	2b-\	.
.	.	4c#\	.	.	.
2F#\	.	1d\	-lu-	2a\	.
=64-	=64-	=64-	=64-	=64-	=64-
1E-X	.	.	.	2g\	.
.	.	2cn\	-ja.	2cc\	-lu-
!	!	!LO:TX:t=P:problem:fermata bez kropki	!	!	!
!LO:N:vis=0	!	!LO:N:vis=0	!	!LO:N:vis=0	!
1D;>	-ia	1d;<	.	1a;>	-ja
!	!	!	!	!LO:LB:g=original	!
=65:|!|:-	=65:|!|:-	=65:|!|:-	=65:|!|:-	=65:|!|:-	=65:|!|:-
*	*	*M2/1	*	*	*
*	*	*met(C|)	*	*	*
0G	Fe-	2.d\	Fe-	2.g\	Fe-
.	.	4c\	.	4a\	.
.	.	4B-\	.	4b-\	.
.	.	4c\	.	4a\	.
.	.	4B-\	.	4b-\	.
!	!	!	!	!LO:TX:t=P:problem:kreska pseudotaktowa	!
.	.	4A\	.	4cc\	.
=66-	=66-	=66-	=66-	=66-	=66-
1G	-lix	2G/	-lix	2dd\	.
.	.	2B-\	ex	1b-	.
1Fny	es	1c	ſa-	.	.
!	!	!	!	!LO:TX:t=P:problem:kreska pseudotaktowa	!
.	.	.	.	2a\	-lix
!LO:LB:g=original	!	!LO:LB:g=original	!	!	!
=67-	=67-	=67-	=67-	=67-	=67-
1B-	ſa-	1d	-cra	1b-	es
!LO:TX:t=P:problem:kreska pseudotaktowa	!	!	!	!	!
1F	-cra	2.f\	ſa-	1cc	ſa-
.	.	4e-X\	-cra	.	.
=68-	=68-	=68-	=68-	=68-	=68-
1G	Vir-	2d\	Vir-	1b-	-cra
.	.	2B-\	-go	.	.
2F\	-go	2A\	Ma-	2r	.
1BB-/	Ma-	2B-\	-ri-	2dd\	Vir-
=69-	=69-	=69-	=69-	=69-	=69-
.	.	1c	-a	1cc	-go
!LO:TX:t=P:problem:kreska pseudotaktowa	!	!	!	!	!
2AA/	.	.	.	.	.
1GG	-ri-	1r	.	1b-	Ma-
=70-	=70-	=70-	=70-	=70-	=70-
1FF	-a	2r	.	4a\	-ri-
.	.	.	.	4g\	.
.	.	2c\	et	4a\	.
.	.	.	.	4b-\	.
2r	.	2c\	om-	1cc	.
!LO:TX:t=P:problem:kreska pseudotaktowa	!	!	!	!	!
2F\	et	2c\	-ni	.	.
=71-	=71-	=71-	=71-	=71-	=71-
2F\	om-	4A/	lau-	1cc	-a
.	.	4G/	.	.	.
2F\	-ni	4A/	.	.	.
.	.	4F/	.	.	.
4D/	lau-	4B-\	.	2r	.
4C/	.	4c\	.	.	.
4BB-/	.	4d\	.	2b-\	et
!LO:TX:t=P:problem:kreska pseudotaktowa	!	!	!	!	!
4C/	.	4c\	.	.	.
=72-	=72-	=72-	=72-	=72-	=72-
4D\	.	2B-\	.	2b-\	om-
4C\	.	.	.	.	.
!	!	!	!	!LO:TX:t=P:problem:kreska pseudotaktowa	!
4D\	.	2F/	-de	2b-\	-ni
4E-X\	.	.	.	.	.
!	!	!	!	!LO:LB:g=original	!
1F	.	1c	lau-	4a\	lau-
.	.	.	.	4g\	.
.	.	.	.	4fny/	.
.	.	.	.	4g/	.
=73-	=73-	=73-	=73-	=73-	=73-
2F\	-de	2c\	-de	2a\	.
!LO:TX:t=P:problem:kreska pseudotaktowa	!	!	!	!	!
2B-\	et	2d\	et	2f/	.
!	!	!	!	!LO:TX:t=P:problem:kreska pseudotaktowa	!
2B-\	om-	2d\	om-	1b-	-de,
2B-\	-ni	2d\	-ni	.	.
!	!	!LO:LB:g=original	!	!	!
=74-	=74-	=74-	=74-	=74-	=74-
4A\	lau-	4c\	lau-	2f,/	.
4G\	.	4B-\	.	.	.
4F\	.	4A\	.	2ff\	et
!LO:TX:t=P:problem:kreska pseudotaktowa	!	!	!	!	!
4G\	.	4B-\	.	.	.
!LO:LB:g=original	!	!	!	!	!
4A\	.	4c\	.	2ff\	om-
4G\	.	4B-\	.	.	.
4A\	.	4c\	.	2ff\	-ni
4F\	.	4A\	.	.	.
=75-	=75-	=75-	=75-	=75-	=75-
1B-	.	1d	.	4dd\	lau-
.	.	.	.	4cc\	.
.	.	.	.	4b-\	.
!	!	!	!	!LO:TX:t=P:problem:kreska pseudotaktowa	!
.	.	.	.	4cc\	.
2B-\	-de	4B-\	-de	2dd\	.
.	.	4B-\	di-	.	.
2G\	di-	1e-X\	-gniſ-	4b-\	-de
.	.	.	.	4b-\	di-
=76-	=76-	=76-	=76-	=76-	=76-
2A-X\	-gniſ-	.	.	2cc\	-gniſ-
2F\	-si-	2d\	-si-	2a-X\	-si-
!LO:TX:t=P:problem:kreska pseudotaktowa	!	!	!	!	!
1E-	-ma	1e-	-ma	1g	-ma
=77-	=77-	=77-	=77-	=77-	=77-
00r	.	2r	.	0r	.
.	.	1c	qvia	.	.
!	!	!LO:N:acc=#	!	!	!
.	.	2Bn\	.	.	.
=78-	=78-	=78-	=78-	=78-	=78-
.	.	1c	ex	2r	.
.	.	.	.	1cc	qvia
.	.	1G	Te	.	.
!	!	!	!	!LO:TX:t=P:problem:kreska pseudotaktowa	!
!	!	!	!	!LO:N:acc=#	!
.	.	.	.	2bn\	.
=79-	=79-	=79-	=79-	=79-	=79-
00r	.	4C/	or-	1cc	ex
.	.	4D/	.	.	.
.	.	4E-X/	.	.	.
.	.	4F/	.	.	.
.	.	4G/	.	2g/	Te
.	.	4A-X/	.	.	.
.	.	4B-y\	.	2.g/	or-
.	.	4G/	.	.	.
=80-	=80-	=80-	=80-	=80-	=80-
.	.	2.c\	.	.	.
.	.	.	.	4f/	.
!	!	!	!	!LO:LB:g=original	!
.	.	.	.	4e-X/	.
!	!	!	!	!LO:TX:t=P:problem:kreska pseudotaktowa	!
.	.	4B-\	.	4c/	.
!	!	!LO:LB:g=original	!	!	!
.	.	2.A-X/	.	2.cc\	.
.	.	4A-/	-tus	4cc\	-tus
=81-	=81-	=81-	=81-	=81-	=81-
!	!	!	!	!LO:TX:t=P:problem:kreska pseudotaktowa	!
!	!	!	!	!LO:N:acc=#	!
2r	.	2G/	eſt	2bn\	eſt
1E-X	ſol	2G/	ſol	1g	ſol
.	.	4c\	.	.	.
.	.	4B-\	.	.	.
1F\	Ju-	4A-X/	.	1a-X\	Ju-
.	.	4G/	.	.	.
=82-	=82-	=82-	=82-	=82-	=82-
.	.	2F/	.	.	.
1G	-ſti-	2B-\	ju-	1b-X	-ſti-
.	.	2G/	-ſti-	.	.
1A-X\	.	2.c\	.	1cc\	.
=83-	=83-	=83-	=83-	=83-	=83-
.	.	.	.	.	.
.	.	4d\	.	.	.
1B-	.	1e-X	.	1b-	.
2BB-/	-tiae	2d\	-tiae	2b-\	-tiae
=84-	=84-	=84-	=84-	=84-	=84-
!LO:TX:t=P:problem:kreska pseudotaktowa	!	!	!	!	!
1E-X	.	2e-X\	.	1b-	.
.	.	1e-	Chri-	.	.
00r	.	.	.	1r	.
.	.	2d\	-ſtus	.	.
=85-	=85-	=85-	=85-	=85-	=85-
.	.	1c	De-	2.ee-X\	Chri-
!	!	!	!	!LO:TX:t=P:problem:kreska pseudotaktowa	!
.	.	.	.	4dd\	-ſt(us)
.	.	1F	-us	4cc\	De-
.	.	.	.	4b-\	-us
.	.	.	.	1cc\	no-
=86-	=86-	=86-	=86-	=86-	=86-
.	.	1G	no-	.	.
!	!	!	!	!LO:TX:t=P:problem:kreska pseudotaktowa	!
!	!	!	!	!LO:N:acc=#	!
.	.	.	.	2bn\	.
2r	.	1C	-ſter	2cc\	.
1C/	qvia	.	.	2ee-X\	.
!	!	!LO:PB:g=original	!	!	!
=87-	=87-	=87-	=87-	=87-	=87-
!	!	!	!	!LO:TX:t=P:problem:kreska pseudotaktowa	!
.	.	0r	.	1dd	.
!LO:TX:t=P:problem:kreska pseudotaktowa	!	!	!	!	!
!LO:N:acc=#	!	!	!	!	!
2BBn/	ex	.	.	.	.
!	!	!	!	!LO:PB:g=original	!
1C	Te	.	.	2cc\	-ſter
.	.	.	.	2.g\	or-
=88-	=88-	=88-	=88-	=88-	=88-
2GG/	.	1r	.	.	.
.	.	.	.	4an\	.
!LO:LB:g=original	!	!	!	!	!
1G	qvia	.	.	4b-y\	.
!	!	!	!	!LO:TX:t=P:problem:kreska pseudotaktowa	!
.	.	.	.	4g\	.
.	.	2r	.	2.a\	.
!LO:TX:t=P:problem:kreska pseudotaktowa	!	!	!	!	!
2F#X\	.	1d\	qvia	.	.
.	.	.	.	4a\	-tus
=89-	=89-	=89-	=89-	=89-	=89-
1G	ex	.	.	2g/	eſt
.	.	2B-\	.	1g	qvia
!LO:TX:t=P:problem:kreska pseudotaktowa	!	!	!	!	!
1D	Te	1Any	ex	.	.
!	!	!	!	!LO:TX:t=P:problem:kreska pseudotaktowa	!
.	.	.	.	2f#X/	.
=90-	=90-	=90-	=90-	=90-	=90-
4GG/	or-	1B-	Te	1g	ex
4AA/	.	.	.	.	.
4BB-y/	.	.	.	.	.
4C/	.	.	.	.	.
4D\	.	2.A/	or-	1f#X	Te
4Eny\	.	.	.	.	.
4F#X\	.	.	.	.	.
!LO:TX:t=P:problem:kreska pseudotaktowa	!	!	!	!	!
4D\	.	4A/	-tus	.	.
=91-	=91-	=91-	=91-	=91-	=91-
2.G\	.	2B-\	eſt	4g\	or-
.	.	.	.	4a\	.
.	.	1B-	or-	4b-\	.
!	!	!	!	!LO:TX:t=P:problem:kreska pseudotaktowa	!
4F#\	.	.	.	4cc\	.
2.E-X\	.	.	.	2dd\	.
!	!	!	!	!LO:TX:t=P:problem:kreska pseudotaktowa	!
.	.	2c\	-t(us)	2cc\	-tus
!LO:TX:t=P:problem:kreska pseudotaktowa	!	!	!	!	!
4E-\	-tus	.	.	.	.
=92-	=92-	=92-	=92-	=92-	=92-
2D,/	eſt	2A/	eſt	2dd\	eſt
1BB-	ſol	2B-\	ſol	2fny/	ſol
.	.	2G/	.	1g	ju-
1C/	Ju-	2c\	ju-	.	.
=93-	=93-	=93-	=93-	=93-	=93-
*	*	*	*	*lig	*
.	.	2A\	-ſti-	1a	-ſti-
1D	-ſti-	2d\	.	.	.
.	.	2B-\	.	1b-	.
1E-X\	.	2e-X\	.	.	.
*	*	*	*	*Xlig	*
=94-	=94-	=94-	=94-	=94-	=94-
.	.	1.c	.	2cc\	.
1Fny	.	.	.	2a\	.
!	!	!	!	!LO:LB:g=original	!
.	.	.	.	2b-\	.
!LO:TX:t=P:problem:kreska pseudotaktowa	!	!LO:TX:t=P:problem:kreska pseudotaktowa	!	!LO:TX:t=P:problem:kreska pseudotaktowa	!
2F\	-tiae	2c\	-tiae	2a\	-tiae
=95-	=95-	=95-	=95-	=95-	=95-
2BB-/	Chri-	2d\	.	2b-\	.
1B-	.	2d\	Chri-	4f/	Chri-
!	!	!	!	!LO:TX:t=P:problem:kreska pseudotaktowa	!
.	.	.	.	4f/	-ſt(us)
!	!	!LO:LB:g=original	!	!	!
.	.	1c	-ſtus	2g/	De-
2Any\	-ſtus	.	.	2a\	-us
!LO:LB:g=original	!	!	!	!	!
=96-	=96-	=96-	=96-	=96-	=96-
1G	De-	1B-	De-	2.b-\	.
!	!	!	!	!LO:TX:t=P:problem:kreska pseudotaktowa	!
.	.	.	.	4a\	no-
!LO:TX:t=P:problem:kreska pseudotaktowa	!	!	!	!	!
1C	-us	1c	-us	2g\	.
.	.	.	.	2.cc\	.
=97-	=97-	=97-	=97-	=97-	=97-
!	!	!LO:TX:t=P:problem:kreska pseudotaktowa	!	!	!
1D	no-	1A	no-	.	.
.	.	.	.	4b-\	.
!	!	!	!	!LO:TX:t=P:problem:kreska pseudotaktowa	!
.	.	.	.	2a\	.
!	!	!LO:N:acc=#	!	!	!
2GG,/	-ſter	2Bn\	-ſter	2g/	-ſter
1C/	De-	1c\	De-	1g\	De-
=98-	=98-	=98-	=98-	=98-	=98-
.	.	.	.	.	.
!LO:N:acc=#	!	!	!	!	!
2BBn/	-us	2G/	-us	2g/	-us
0C	no-	0c	no-	0g	no-
=99-	=99-	=99-	=99-	=99-	=99-
.	.	.	.	.	.
!	!	!LO:N:acc=#	!	!LO:TX:t=P:problem:górna fermata bez kropki	!
!	!	!	!	!LO:TX:t=P:problem:w źródle brak obustronnej repetycji	!
0GG;>	-ſter.	0Bn;>	-ſter.	0g;;	-ſter.
=100:|!|:-	=100:|!|:-	=100:|!|:-	=100:|!|:-	=100:|!|:-	=100:|!|:-
!	!	!LO:TX:t=P:problem:w źródle partia zakończona obustronną repetycją	!	!LO:TX:t=P:problem:takt dodany za zgodą EZ	!
!LO:TX:t=P:problem:napis na pięciolinii	!	!LO:TX:t=P:problem:napis na pięciolinii	!	!LO:TX:t=P:problem:napis na pięciolinii	!
!LO:TX:b:i:t=Alleluja\nùt ſupra.	!	!LO:TX:b:i:t=Alleluja.\nùt ſuprà	!	!LO:TX:b:i:t=Alleluia\n ùt supra.	!
.	.	.	.	.	.
==	==	==	==	==	==
*-	*-	*-	*-	*-	*-
!!!system-decoration: [(s1,s2,s3)]
!!!RDF**kern: > = above
!!!RDF**kern: < = below
!!!RDF**kern: l = terminal long
!!!EED: Mateusz Mrugas
!!!EST: 2021-03-26
!!!ENC:Anastazja Marusiak
!!!END:2021-03-10
